icons/door-open-two-color.svg

<?xml version="1.0" encoding="UTF-8"?><svg id="uuid-c5620a6d-3b4d-4bd8-a57e-91b002f96881" xmlns="http://www.w3.org/2000/svg" viewBox="0 0 50 50"><polygon points="30.64 4.67 31.14 4.67 31.14 3.26 14.43 6.09 14.43 46.5 31.14 49.33 31.14 44.93 30.64 44.93 30.64 4.67" fill="#ffcd00"/><rect x="30.64" y="4.67" width=".5" height="40.26" fill="#ffcd00"/><path d="M37.57,3.67h-6.93V1.17c0-.15-.06-.29-.18-.38-.11-.1-.26-.13-.41-.11L12.35,3.67c-.24,.04-.42,.25-.42,.49V45.43c0,.24,.18,.45,.42,.49l17.71,3s.06,0,.08,0c.12,0,.23-.04,.32-.12,.11-.09,.18-.23,.18-.38v-2.5h6.93c.28,0,.5-.22,.5-.5V4.17c0-.28-.22-.5-.5-.5Zm-7.93,44.17l-16.71-2.83V4.59L29.64,1.76V47.83Zm7.43-2.91h-6.43V4.67h6.43V44.93Z"/><path d="M26.87,28.3c.68,0,1.17-.78,1.17-1.85s-.49-1.85-1.17-1.85-1.17,.78-1.17,1.85,.49,1.85,1.17,1.85Z"/></svg>

<svg id="fbca8c35-5bdc-4ac2-b02d-69519bac2076" data-name="ICONS" xmlns="http://www.w3.org/2000/svg" viewBox="0 0 50 50"><polygon points="30.64 4.67 31.14 4.67 31.14 3.26 14.43 6.09 14.43 46.5 31.14 49.33 31.14 44.92 30.64 44.92 30.64 4.67" fill="#fdd600"/><rect x="30.64" y="4.67" width="0.5" height="40.26" fill="#fdd600"/><path d="M37.57,3.67H30.64V1.17a.46.46,0,0,0-.18-.38.46.46,0,0,0-.4-.11l-17.71,3a.51.51,0,0,0-.42.5V45.43a.5.5,0,0,0,.42.49l17.71,3h.08a.47.47,0,0,0,.32-.12.46.46,0,0,0,.18-.38V45.93h6.93a.5.5,0,0,0,.5-.5V4.17A.5.5,0,0,0,37.57,3.67ZM29.64,47.83,12.93,45V4.59L29.64,1.76Zm7.43-2.9H30.64V4.67h6.43Z" fill="#231f20"/><path d="M26.87,28.3c.68,0,1.18-.78,1.18-1.85s-.5-1.85-1.18-1.85-1.17.78-1.17,1.85S26.19,28.3,26.87,28.3Z" fill="#231f20"/></svg>
